svgs/light/dice-d8.svg

<svg xmlns="http://www.w3.org/2000/svg" viewBox="0 0 512 512"><!--! Font Awesome Pro 6.3.0 by @fontawesome - https://fontawesome.com License - https://fontawesome.com/license (Commercial License) Copyright 2023 Fonticons, Inc. --><path d="M512 256c0-8.643-3.305-17.32-9.868-23.88l-222.2-222.3C273.3 3.26 264.6 0 256 0S238.7 3.26 232.1 9.887L9.868 232.1C3.305 238.7 0 247.4 0 256s3.305 17.27 9.868 23.84l222.2 222.3C238.7 508.7 247.2 512 256 512s17.26-3.26 23.89-9.887l222.2-222.3C508.7 273.4 512 264.7 512 256zM239.1 464.9L61.23 285.9l178.8 76.64V464.9zM239.1 327.8L43.72 243.7L239.1 47.26V327.8zM272 464.9v-102.3l178.8-76.64L272 464.9zM272 327.8v-280.6L468.3 243.7L272 327.8z"/></svg>

<svg xmlns="http://www.w3.org/2000/svg" viewBox="0 0 512 512"><!-- Font Awesome Pro 6.0.0-alpha2 by @fontawesome - https://fontawesome.com License - https://fontawesome.com/license (Commercial License) --><path d="M512 256.047C512 247.404 508.718 238.746 502.155 232.182L279.878 9.877C273.252 3.251 264.626 0 256 0S238.748 3.251 232.122 9.877L9.845 232.182C3.282 238.746 0 247.373 0 256C0 264.627 3.282 273.254 9.845 279.818L232.122 502.123C238.748 508.749 247.249 512 256 512S273.252 508.749 279.878 502.123L502.155 279.818C508.718 273.317 512 264.69 512 256.047ZM239.998 464.864L61.226 285.945L239.998 362.589V464.864ZM239.998 327.83L43.724 243.684L239.998 47.262V327.83ZM272.002 464.864V362.589L450.774 285.945L272.002 464.864ZM272.002 327.83V47.262L468.276 243.684L272.002 327.83Z "></path></svg>
